X:505
T: SCHAUST SO FREUNDLICH AUS
N: F0962
O: Europa, Mitteleuropa, Deutschland
R: Liebes - Lied
M: 3/4
L: 1/16
K: Bb
F2B2 | d2c2B4G2B2 | F6z2
F2B2 | d2c2B4G2B2 | F6z2
F2B2 | A2c2F4=E2F2 | G4F2z2
F2G2 | A2AdA4A2A2 | A8
A2A2 | c3BF4=B2B2 | d3cc4
G2c2 | F8G2A2 | B4z4
F3G | F3dd4d4 | d2f2e2=B2c4
A3gg4A4 | d4B,4

